polaris-icons/icons/new-icons/FolderDownMajor.svg

<svg width="20" height="20" viewBox="0 0 20 20" fill="none" xmlns="http://www.w3.org/2000/svg">
<path d="M4.5 6.75C4.5 6.05964 5.05964 5.5 5.75 5.5H7.26393C7.7374 5.5 8.17023 5.7675 8.38197 6.19098L8.55279 6.53262C8.84922 7.1255 9.45518 7.5 10.118 7.5H14.25C14.9404 7.5 15.5 8.05964 15.5 8.75V9.25C15.5 9.66421 15.8358 10 16.25 10C16.6642 10 17 9.66421 17 9.25V8.75C17 7.23122 15.7688 6 14.25 6H10.118C10.0233 6 9.93678 5.9465 9.89443 5.8618L9.72361 5.52016C9.25778 4.58851 8.30556 4 7.26393 4H5.75C4.23122 4 3 5.23122 3 6.75V13.25C3 14.7688 4.23122 16 5.75 16H10.75C11.1642 16 11.5 15.6642 11.5 15.25C11.5 14.8358 11.1642 14.5 10.75 14.5H5.75C5.05964 14.5 4.5 13.9404 4.5 13.25V6.75Z" fill="#4A4A4A"/>
<path d="M16 11.5C16 11.0858 15.6642 10.75 15.25 10.75C14.8358 10.75 14.5 11.0858 14.5 11.5V14.4393L13.7803 13.7197C13.4874 13.4268 13.0126 13.4268 12.7197 13.7197C12.4268 14.0126 12.4268 14.4874 12.7197 14.7803L14.7197 16.7803C15.0126 17.0732 15.4874 17.0732 15.7803 16.7803L17.7803 14.7803C18.0732 14.4874 18.0732 14.0126 17.7803 13.7197C17.4874 13.4268 17.0126 13.4268 16.7197 13.7197L16 14.4393V11.5Z" fill="#4A4A4A"/>
</svg>

<svg viewBox="0 0 20 20" xmlns="http://www.w3.org/2000/svg"><path d="M4.5 6.75c0-.69.56-1.25 1.25-1.25h1.514c.473 0 .906.268 1.118.691l.17.342a1.75 1.75 0 0 0 1.566.967h4.132c.69 0 1.25.56 1.25 1.25v.5a.75.75 0 0 0 1.5 0v-.5a2.75 2.75 0 0 0-2.75-2.75h-4.132a.25.25 0 0 1-.224-.138l-.17-.342a2.75 2.75 0 0 0-2.46-1.52h-1.514a2.75 2.75 0 0 0-2.75 2.75v6.5a2.75 2.75 0 0 0 2.75 2.75h5a.75.75 0 0 0 0-1.5h-5c-.69 0-1.25-.56-1.25-1.25v-6.5Z" fill="#5C5F62"/><path d="M16 11.5a.75.75 0 0 0-1.5 0v2.94l-.72-.72a.75.75 0 1 0-1.06 1.06l2 2a.75.75 0 0 0 1.06 0l2-2a.75.75 0 1 0-1.06-1.06l-.72.72v-2.94Z" fill="#5C5F62"/></svg>
